X:1
T: Nell's Waltz
N:
C:Nicholas Broadbridge
S:
A:
O:
R:
M:3/4
K:D
I:speed 248
%W:
% voice 1 (1 lines, 30 notes)
K:D
M:3/4
L:1/16
A4 |F4 D2 F2 A2 d2 |f4 a4 f4 |g4 b4 g4 |e4 c4 a4 |g4 a2 g2 f2 e2 |f4 g2 f2 e2 d2 |e4 A4 c4 |d8 A4 |
%W:
% voice 1 (1 lines, 29 notes)
F4 D2 F2 A2 d2 |f4 a4 f4 |g4 b4 g4 |e4 c4 a4 |g4 a2 g2 f2 e2 |f4 g2 f2 e2 d2 |e4 A4 c4 |d8 c4 |
%W:
% voice 1 (1 lines, 33 notes)
B6 c2 d2 B2 |c4 A4 F4 |d2 c2 B2 c2 d2 e2 |f4 d4 B4 |g4 a2 g2 f2 e2 |f4 g2 f2 e2 d2 |e4 b4 g4 |a6 f2 g2 e2 |
%W:
% voice 1 (1 lines, 28 notes)
d4 A2 d2 f2 a2 |d'4 a4 f4 |g4 b4 g4 |e4 c4 a4 |g4 a2 g2 f2 e2 |f4 g2 f2 e2 d2 |e4 A4 c4 |d8 ||
